Hatter-kde-dark/actions/16/retweet.svg

<?xml version="1.0" encoding="UTF-8"?>
<svg viewBox="0 0 16 16" xmlns="http://www.w3.org/2000/svg">
 <defs id="defs3051">
  <style id="current-color-scheme" type="text/css">.ColorScheme-Text {
        color:#dedede;
      }</style>
 </defs>
 <path class="ColorScheme-Text" d="m3.5 3-2.5 3h1.666 0.33398v6 1h6v-1h-5v-6h0.33398 1.666l-2.5-3zm3.5 0v1h5v6h-0.33398-1.666l2.5 3 2.5-3h-1.666-0.33398v-6-1h-6z" fill="currentColor"/>
</svg>

<svg xmlns="http://www.w3.org/2000/svg" viewBox="0 0 16 16">
  <defs id="defs3051">
    <style type="text/css" id="current-color-scheme">
      .ColorScheme-Text {
        color:#dedede;
      }
      </style>
  </defs>
 <path style="fill:currentColor;fill-opacity:1;stroke:none" 
       d="M 3.5 3 L 1 6 L 2.6660156 6 L 3 6 L 3 12 L 3 13 L 9 13 L 9 12 L 4 12 L 4 6 L 4.3339844 6 L 6 6 L 3.5 3 z M 7 3 L 7 4 L 12 4 L 12 10 L 11.666016 10 L 10 10 L 12.5 13 L 15 10 L 13.333984 10 L 13 10 L 13 4 L 13 3 L 7 3 z "
     class="ColorScheme-Text"
     />
</svg>
